X: 4313
T: Bog Carrot, The
R: reel
M: 4/4
K: Dmajor
FAdA BdAB|dBAF E2EG|FAdA BdAB|dBAF EFDE|
FAdA BdAB|dBAF E2EG|FAdA BdAB|dBAF EFD2||
|:f2fe defg|afdf e2de|fgfe defe|dBAF EFD2:|
afdf afdf|ge=ce ge=ce|afdf afdf|ge^ce d2fg|
afdf afdf|ge=ce ge=ce|afge fdec|dBAF EFDE||

